X:133
T: DIE BLUEMELEIN SIE SCHLAFEN
N: B0624
O: Europa, Mitteleuropa, Deutschland, Niederrhein ?
R: Kinder -, Wiegen - Lied
M: 4/4
L: 1/8
K: A
E2 | A3Bc2B2 | A4G2
A2 | Bcd2cBA2 | B4z2
E2 | A3Bc2B2 | A4G2
A2 | Bcd2cBA2 | B4z2
cd | e2c2d2e2 | f3ed2
Bc | d2d2c2e2 | B6z2
e3cB4 | c3BAB
cd | e2ABc2B2 | A4z2

